X:1
T:The Story Must Be Told
T:The Story Must Be Told
T:Ira David Sankey
T:Frances Jane (Fanny) Crosby, 1899
T:Public Domain Courtesy of the Cyber Hymnal™
T:Public Domain Courtesy of the Cyber Hymnal™
C:Ira David Sankey
Z:Public Domain
Z:Courtesy of the Cyber Hymnal™
%%score ( 1 2 ) ( 3 4 )
L:1/8
Q:1/4=103
M:4/4
K:G
V:1 treble 
V:2 treble 
V:3 bass 
V:4 bass 
V:1
 [DB]>[Ec] | [DB]2 [CA]2 [CE]2 [CF]2 | [B,E]2 [B,D]4 [DG]>[DA] | [DB]2 [Gd]2 [FA]2 [Fd]2 | %4
w: 1.~O the|pre- cious Gos- pel|sto- ry, How it|tells of love to|
w: 2.~O the|bless- èd Gos- pel|sto- ry, Of His|meek and low- ly|
w: 3.~O the|won- dorus Gos- pel|sto- ry; There is|life in ev- ery|
 [Gd]6 [DB]>[Dc] | [DB]2 [CA]2 [CE]2 [CF]2 | [B,E]2 [B,D]4 [DG]>[EA] | [EB]2 [Dd]2 [GB]3 [FA] | %8
w: all; How the|Sav- ior in com-|pas- sion, Died to|save us from the|
w: birth, And the|wel- come of the|an- gels When they|sang good will to|
w: word; There is|hope and con- so-|la- tion, Where the|mes- sage sweet is|
 G6 [DG]>[DG] | [EG]2 [Ec]2 [Ec]2 [Ge]2 | [Ge]2 [Gd]4 [Gd]>[Gd] | [Fd]2 [FA]2 [GB]2 [G^c]2 | %12
w: fall; How He|came to seek the|lost ones, And to|bring them to His|
w: earth; Of the|cross, on which He|suf- fered, As by|pro- phets seen of|
w: heard; Let us|tell it to the|wea- ry, And its|beau- ties all un-|
 [Fd]6 [DB]>[Dc] | [DB]2 [CA]2 [CE]2 [CF]2 | [B,E]2 [B,D]4 [DG][EA] | [DB] [Gd]3 [GB]2 [FA]2 | %16
w: fold; Let us|has- ten to pro-|claim it, For the|sto- ry must be|
w: old; Of His|death and re- sur-|rec- tion, Let the|sto- ry now be|
w: fold; ’Tis the|on- ly guide to|Hea- ven, And the|sto- ry must be|
 G6 ||"^Refrain" [DB]2 | [Gd] [Gd]3 [DB]2 [Dc]2 | d6 [DB]2 | [Dc] [Dc]3 [GB]2 [FA]2 | %21
w: told.|||||
w: told.|The|sto- ry must be|told, The|sto- ry must be|
w: told.|||||
 [GB]6 [B,D]2 | [CE]2 [CF]2 [B,G]2 [DA]2 | [DB]2 [G^c]2 !fermata![Fd]2 G2 | %24
w: |||
w: told, That|Je- sus died for|sin- ners lost, The|
w: |||
 [GB] [DG]3 [EG]2 [DF]2 | [DG]6 |] %26
w: ||
w: sto- ry must be|told.|
w: ||
V:2
 x2 | x8 | x8 | x8 | x8 | x8 | x8 | x8 | G6 x2 | x8 | x8 | x8 | x8 | x8 | x8 | x8 | G6 || x2 | x8 | %19
 (G2 F2 G2) x2 | x8 | x8 | x8 | x6 G2 | x8 | x6 |] %26
V:3
 G,>G, | [D,F,]2 [D,F,]2 [D,F,]2 [D,A,]2 | [G,,G,]2 [G,,G,]4 [G,B,]>[G,C] | %3
 [G,D]2 [B,,D]2 [D,D]2 [D,C]2 | [G,B,]6 G,>G, | [D,F,]2 [D,F,]2 [D,F,]2 [D,A,]2 | %6
 [G,,G,]2 [G,,G,]4 [B,,G,]>[C,G,] | [D,G,]2 [D,B,]2 [D,D]3 [D,C] | [G,B,]6 [G,B,]>[G,B,] | %9
 [C,C]2 [C,G,]2 [C,G,]2 [C,C]2 | [G,C]2 [G,B,]4 [G,B,]>[G,B,] | A,2 [A,D]2 [A,,^C]2 [A,,A,]2 | %12
 [D,A,]6 [D,F,]>[D,F,] | [D,F,]2 [D,F,]2 [D,F,]2 [D,A,]2 | [G,,G,]2 [G,,G,]4 [B,,G,][C,G,] | %15
 [D,G,] [D,B,]3 [D,D]2 [D,C]2 | [G,B,]6 || G,2 | [G,B,] [G,B,]3 G,2 [G,A,]2 | %19
 [G,B,]2 [A,C]2 [B,D]2 G,2 | [D,A,] [D,A,]3 [D,D]2 [D,D]2 | [G,D]6 [G,,G,]2 | %22
 [C,G,]2 [A,,A,]2 [E,G,]2 [F,D]2 | G,2 [E,A,]2 !fermata![D,A,]2 [B,,D]2 | %24
 [D,D] [D,B,]3 [D,A,]2 [D,C]2 | [G,,B,]6 |] %26
V:4
 G,>G, | x8 | x8 | x8 | x6 G,>G, | x8 | x8 | x8 | x8 | x8 | x8 | A,2 x6 | x8 | x8 | x8 | x8 | x6 || %17
 G,2 | x4 G,2 x2 | x6 G,2 | x8 | x8 | x8 | G,2 x6 | x8 | x6 |] %26

